public/telgrey.svg

<svg fill="none" height="32" viewBox="0 0 33 32" width="33" xmlns="http://www.w3.org/2000/svg"><path d="m16.6 2.66667c-3.5362 0-6.92761 1.40476-9.42809 3.90524-2.50049 2.50049-3.90525 5.89189-3.90525 9.42809s1.40476 6.9276 3.90525 9.4281c2.50048 2.5005 5.89189 3.9052 9.42809 3.9052s6.9276-1.4047 9.4281-3.9052 3.9052-5.8919 3.9052-9.4281-1.4047-6.9276-3.9052-9.42809c-2.5005-2.50048-5.8919-3.90524-9.4281-3.90524z" fill="#949494"/><path d="m23.2333 10-2.4973 12.7507s-.1073.5826-.83.5826c-.384 0-.582-.1826-.582-.1826l-5.4093-4.4887-2.6467-1.334-3.39667-.9033s-.60467-.1747-.60467-.6747c0-.4167.622-.6153.622-.6153l14.21064-5.64537s.434-.15666.7507-.156c.1947 0 .4167.08334.4167.33334 0 .16666-.0334.33333-.0334.33333z" fill="#fff"/><path d="m15.9333 20.3367-2.284 2.2493s-.0993.0767-.232.08c-.046.0013-.0953-.006-.146-.0287l.6427-3.9766z" fill="#b0bec5"/><path d="m20.5313 12.1307c-.1126-.1467-.3206-.1734-.4673-.062l-8.7973 5.2646s1.404 3.928 1.618 4.608c.2146.6807.3866.6967.3866.6967l.6427-3.9767 6.5547-6.064c.1466-.1113.174-.32.0626-.4666z" fill="#cfd8dc"/></svg>

<svg width="33" height="32" viewBox="0 0 33 32" fill="none" xmlns="http://www.w3.org/2000/svg">
<path d="M16.6 2.66667C13.0638 2.66667 9.67239 4.07143 7.17191 6.57191C4.67142 9.0724 3.26666 12.4638 3.26666 16C3.26666 19.5362 4.67142 22.9276 7.17191 25.4281C9.67239 27.9286 13.0638 29.3333 16.6 29.3333C20.1362 29.3333 23.5276 27.9286 26.0281 25.4281C28.5286 22.9276 29.9333 19.5362 29.9333 16C29.9333 12.4638 28.5286 9.0724 26.0281 6.57191C23.5276 4.07143 20.1362 2.66667 16.6 2.66667Z" fill="#949494"/>
<path d="M23.2333 10L20.736 22.7507C20.736 22.7507 20.6287 23.3333 19.906 23.3333C19.522 23.3333 19.324 23.1507 19.324 23.1507L13.9147 18.662L11.268 17.328L7.87133 16.4247C7.87133 16.4247 7.26666 16.25 7.26666 15.75C7.26666 15.3333 7.88866 15.1347 7.88866 15.1347L22.0993 9.48933C22.0993 9.48933 22.5333 9.33267 22.85 9.33333C23.0447 9.33333 23.2667 9.41667 23.2667 9.66667C23.2667 9.83333 23.2333 10 23.2333 10Z" fill="white"/>
<path d="M15.9333 20.3367L13.6493 22.586C13.6493 22.586 13.55 22.6627 13.4173 22.666C13.3713 22.6673 13.322 22.66 13.2713 22.6373L13.914 18.6607L15.9333 20.3367Z" fill="#B0BEC5"/>
<path d="M20.5313 12.1307C20.4187 11.984 20.2107 11.9573 20.064 12.0687L11.2667 17.3333C11.2667 17.3333 12.6707 21.2613 12.8847 21.9413C13.0993 22.622 13.2713 22.638 13.2713 22.638L13.914 18.6613L20.4687 12.5973C20.6153 12.486 20.6427 12.2773 20.5313 12.1307Z" fill="#CFD8DC"/>
</svg>
